config/expand/iconfont/nav-menu/menu-zhaopinguanli.svg

<?xml version="1.0" standalone="no"?><!DOCTYPE svg PUBLIC "-//W3C//DTD SVG 1.1//EN" "http://www.w3.org/Graphics/SVG/1.1/DTD/svg11.dtd"><svg class="icon" width="48px" height="48.00px" viewBox="0 0 1024 1024" version="1.1" xmlns="http://www.w3.org/2000/svg"><path fill="#D9DDE1" d="M0.52352 867.392c1.088-11.584 3.904-22.784 8.064-33.472 46.272-158.464 197.376-282.368 388.288-316.928-119.68-38.528-168.576-135.808-168.576-249.728C228.29952 119.808 335.05152 0 510.92352 0c176 0 280.32 119.808 280.32 267.264 0 115.2-48.32 213.376-170.112 250.944l1.088 0.192 4.928-1.536c190.848 34.56 342.016 158.464 388.224 316.928a124.352 124.352 0 0 1 8.704 45.44C1024.07552 959.296 946.76352 1024 851.53152 1024H172.68352c-95.36 0-172.48-64.896-172.48-144.704-0.256-4.032 0-8 0.32-11.904zM511.43552 960v-1.216l0.704 0.64 0.704 0.576L640.07552 862.656 544.65152 675.84c30.08-25.984 50.24-70.848 50.24-70.848l0.192-2.816c-30.016-20.608-58.24-26.816-82.304-26.24v0.128H511.43552v-0.064c-24-0.704-52.288 5.568-82.304 26.24l0.192 2.752s20.096 44.8 50.24 70.848L384.07552 862.72 511.37152 960z"  /></svg>

<svg class="icon" width="48" height="48" viewBox="0 0 1024 1024" xmlns="http://www.w3.org/2000/svg">
  <path
    d="M.524 867.392c1.088-11.584 3.904-22.784 8.064-33.472C54.86 675.456 205.964 551.552 396.876 516.992 277.196 478.464 228.3 381.184 228.3 267.264 228.3 119.808 335.052 0 510.924 0c176 0 280.32 119.808 280.32 267.264 0 115.2-48.32 213.376-170.112 250.944l1.088.192 4.928-1.536c190.848 34.56 342.016 158.464 388.224 316.928a124.352 124.352 0 018.704 45.44c0 80.064-77.312 144.768-172.544 144.768H172.684C77.324 1024 .204 959.104.204 879.296c-.256-4.032 0-8 .32-11.904zM511.436 960v-1.216l.704.64.704.576 127.232-97.344-95.424-186.816c30.08-25.984 50.24-70.848 50.24-70.848l.192-2.816c-30.016-20.608-58.24-26.816-82.304-26.24v.128h-1.344V576c-24-.704-52.288 5.568-82.304 26.24l.192 2.752s20.096 44.8 50.24 70.848l-95.488 186.88L511.372 960z"/>
</svg>
